static/images/logos/osfin.svg

<svg xmlns="http://www.w3.org/2000/svg" width="100%" height="100%" viewBox="0 0 696 192" fill="none" preserveAspectRatio="xMidYMid meet" aria-hidden="true" role="img">
<g clip-path="url(#clip0_567_16299)">
<mask id="mask0_567_16299" style="mask-type:luminance" maskUnits="userSpaceOnUse" x="24" y="24" width="144" height="144">
<path d="M168 24H24V168H168V24Z" fill="white"/>
</mask>
<g mask="url(#mask0_567_16299)">
<mask id="mask1_567_16299" style="mask-type:luminance" maskUnits="userSpaceOnUse" x="0" y="0" width="192" height="192">
<path d="M47.2951 0.699857L0.698618 47.2964L144.716 191.314L191.313 144.717L47.2951 0.699857Z" fill="white"/>
</mask>
<g mask="url(#mask1_567_16299)">
<path d="M168 163.681C168 166.067 166.066 168.001 163.68 168.001H95.9995L61.7995 133.801L23.9995 96.001V28.321C23.9995 25.9351 25.9336 24.001 28.3195 24.001H95.9995L134.16 62.161L168 96.001V163.681Z" fill="url(#paint0_linear_567_16299)"/>
</g>
<path fill-rule="evenodd" clip-rule="evenodd" d="M26.3395 92.8322C25.3966 92.0779 23.9999 92.7491 23.9999 93.9566V163.681C23.9999 166.067 25.9341 168.001 28.3199 168.001H41.9999V167.998H98.0431C99.2505 167.998 99.9218 166.601 99.1676 165.658L88.8009 152.7C87.4345 150.992 85.3659 149.998 83.1787 149.998H56.3991H41.9999V108.821C41.9999 106.634 41.0056 104.565 39.2977 103.199L26.3395 92.8322Z" fill="url(#paint1_linear_567_16299)"/>
<path fill-rule="evenodd" clip-rule="evenodd" d="M165.66 99.1688C166.604 99.9231 168 99.2518 168 98.0444V28.3205C168 25.9346 166.066 24.0005 163.68 24.0005H150L93.9568 24.0009C92.7494 24.0009 92.0781 25.3976 92.8324 26.3404L103.199 39.2986C104.565 41.0067 106.634 42.0009 108.821 42.0009H150V83.18C150 85.3672 150.994 87.4359 152.702 88.8022L165.66 99.1688Z" fill="url(#paint2_linear_567_16299)"/>
</g>
</g>
<path d="M300.638 97.9025C300.638 107.67 298.77 115.98 295.034 122.832C291.327 129.684 286.267 134.918 279.854 138.533C273.47 142.119 266.292 143.913 258.319 143.913C250.288 143.913 243.08 142.105 236.696 138.489C230.312 134.874 225.267 129.64 221.56 122.788C217.853 115.936 216 107.641 216 97.9025C216 88.1349 217.853 79.8251 221.56 72.9731C225.267 66.1212 230.312 60.9021 236.696 57.3157C243.08 53.7002 250.288 51.8925 258.319 51.8925C266.292 51.8925 273.47 53.7002 279.854 57.3157C286.267 60.9021 291.327 66.1212 295.034 72.9731C298.77 79.8251 300.638 88.1349 300.638 97.9025ZM281.266 97.9025C281.266 91.5754 280.31 86.2396 278.397 81.8952C276.515 77.5508 273.852 74.256 270.41 72.0109C266.968 69.7658 262.938 68.6433 258.319 68.6433C253.7 68.6433 249.67 69.7658 246.228 72.0109C242.786 74.256 240.109 77.5508 238.197 81.8952C236.314 86.2396 235.372 91.5754 235.372 97.9025C235.372 104.23 236.314 109.565 238.197 113.91C240.109 118.254 242.786 121.549 246.228 123.794C249.67 126.039 253.7 127.162 258.319 127.162C262.938 127.162 266.968 126.039 270.41 123.794C273.852 121.549 276.515 118.254 278.397 113.91C280.31 109.565 281.266 104.23 281.266 97.9025Z" fill="currentColor"/>
<path d="M370.835 94.6661L353.625 95.7157C353.331 94.2579 352.699 92.9458 351.728 91.7795C350.757 90.5841 349.477 89.6364 347.889 88.9367C346.329 88.2077 344.461 87.8433 342.284 87.8433C339.372 87.8433 336.915 88.4556 334.915 89.6802C332.914 90.8756 331.914 92.4793 331.914 94.4911C331.914 96.0948 332.561 97.4506 333.856 98.5585C335.15 99.6665 337.371 100.556 340.519 101.226L352.787 103.676C359.377 105.017 364.29 107.174 367.526 110.149C370.762 113.123 372.38 117.03 372.38 121.87C372.38 126.272 371.071 130.136 368.452 133.46C365.863 136.784 362.304 139.379 357.773 141.245C353.272 143.082 348.08 144 342.196 144C333.223 144 326.074 142.149 320.75 138.446C315.454 134.713 312.351 129.64 311.439 123.226L329.928 122.263C330.487 124.975 331.841 127.045 333.988 128.474C336.136 129.873 338.886 130.573 342.24 130.573C345.535 130.573 348.183 129.946 350.183 128.692C352.213 127.41 353.243 125.762 353.272 123.75C353.243 122.059 352.522 120.674 351.11 119.595C349.698 118.487 347.521 117.642 344.579 117.059L332.841 114.741C326.222 113.429 321.294 111.154 318.058 107.918C314.851 104.682 313.248 100.556 313.248 95.5408C313.248 91.2255 314.425 87.508 316.778 84.3882C319.161 81.2683 322.5 78.8629 326.795 77.1718C331.12 75.4806 336.18 74.6351 341.975 74.6351C350.536 74.6351 357.273 76.4282 362.186 80.0146C367.128 83.6009 370.012 88.4847 370.835 94.6661Z" fill="currentColor"/>
<path d="M420.667 75.5098V89.5052H378.833V75.5098H420.667ZM388.409 142.688V70.6551C388.409 65.7859 389.365 61.7476 391.278 58.5403C393.219 55.333 395.867 52.9276 399.221 51.3239C402.575 49.7203 406.384 48.9184 410.65 48.9184C413.533 48.9184 416.166 49.1371 418.549 49.5745C420.961 50.0118 422.756 50.4055 423.933 50.7554L420.579 64.7508C419.843 64.5175 418.931 64.2989 417.843 64.0948C416.784 63.8907 415.695 63.7886 414.577 63.7886C411.812 63.7886 409.885 64.4301 408.797 65.713C407.708 66.9667 407.164 68.7308 407.164 71.005V142.688H388.409Z" fill="currentColor"/>
<path d="M432.152 142.688V75.5098H450.95V142.688H432.152ZM441.595 66.8501C438.8 66.8501 436.403 65.9317 434.402 64.0948C432.431 62.2287 431.445 59.9982 431.445 57.4032C431.445 54.8374 432.431 52.636 434.402 50.7991C436.403 48.933 438.8 48 441.595 48C444.39 48 446.773 48.933 448.744 50.7991C450.744 52.636 451.745 54.8374 451.745 57.4032C451.745 59.9982 450.744 62.2287 448.744 64.0948C446.773 65.9317 444.39 66.8501 441.595 66.8501Z" fill="currentColor"/>
<path d="M484.808 103.851V142.688H466.009V75.5098H483.925V87.3622H484.719C486.22 83.4551 488.735 80.3645 492.265 78.0902C495.796 75.7868 500.076 74.6351 505.107 74.6351C509.814 74.6351 513.918 75.6556 517.418 77.6966C520.919 79.7376 523.641 82.6533 525.582 86.4437C527.524 90.205 528.495 94.6952 528.495 99.9143V142.688H509.696V103.238C509.725 99.1271 508.666 95.9198 506.519 93.6164C504.371 91.2838 501.415 90.1175 497.649 90.1175C495.119 90.1175 492.883 90.6569 490.941 91.7358C489.029 92.8146 487.529 94.3891 486.44 96.4592C485.381 98.5002 484.837 100.964 484.808 103.851Z" fill="currentColor"/>



<defs>
<linearGradient id="paint0_linear_567_16299" x1="168" y1="168.001" x2="23.9995" y2="24.001" gradientUnits="userSpaceOnUse">
<stop stop-color="#6631D6"/>
<stop offset="1" stop-color="#9867FF"/>
</linearGradient>
<linearGradient id="paint1_linear_567_16299" x1="23.9999" y1="92.9951" x2="99.0063" y2="168.001" gradientUnits="userSpaceOnUse">
<stop stop-color="#9867FF"/>
<stop offset="1" stop-color="#6833D7"/>
</linearGradient>
<linearGradient id="paint2_linear_567_16299" x1="168" y1="99.0081" x2="92.9941" y2="24.0022" gradientUnits="userSpaceOnUse">
<stop stop-color="#6733D7"/>
<stop offset="1" stop-color="#9867FF"/>
</linearGradient>
<clipPath id="clip0_567_16299">
<rect width="144" height="144" fill="white" transform="translate(24 24)"/>
</clipPath>
</defs>
</svg>

<svg xmlns="http://www.w3.org/2000/svg" fill="none" aria-hidden="true" viewBox="0 0 696 192"><g clip-path="url(#a)"><mask id="b" width="144" height="144" x="24" y="24" maskUnits="userSpaceOnUse" style="mask-type:luminance"><path fill="#fff" d="M168 24H24v144h144z"/></mask><g mask="url(#b)"><mask id="c" width="192" height="192" x="0" y="0" maskUnits="userSpaceOnUse" style="mask-type:luminance"><path fill="#fff" d="M47.295.7.7 47.296l144.017 144.018 46.597-46.597z"/></mask><g mask="url(#c)"><path fill="url(#d)" d="M168 163.681a4.32 4.32 0 0 1-4.32 4.32H96l-34.2-34.2-37.8-37.8v-67.68a4.32 4.32 0 0 1 4.32-4.32H96l38.16 38.16L168 96.001z"/></g><path fill="url(#e)" fill-rule="evenodd" d="M26.34 92.832c-.943-.754-2.34-.083-2.34 1.125v69.724a4.32 4.32 0 0 0 4.32 4.32H42v-.003h56.043c1.207 0 1.879-1.397 1.125-2.34L88.8 152.7a7.2 7.2 0 0 0-5.622-2.702h-41.18v-41.177a7.2 7.2 0 0 0-2.701-5.622z" clip-rule="evenodd"/><path fill="url(#f)" fill-rule="evenodd" d="M165.66 99.169c.944.754 2.34.083 2.34-1.125V28.321a4.32 4.32 0 0 0-4.32-4.32H93.957c-1.208 0-1.879 1.397-1.125 2.34L103.2 39.298A7.2 7.2 0 0 0 108.821 42H150V83.18a7.2 7.2 0 0 0 2.702 5.622z" clip-rule="evenodd"/></g></g><path fill="currentColor" d="M300.638 97.903q0 14.65-5.604 24.929-5.56 10.278-15.18 15.701-9.576 5.38-21.535 5.38-12.047 0-21.623-5.424-9.576-5.423-15.136-15.701T216 97.903q0-14.652 5.56-24.93 5.56-10.277 15.136-15.657 9.576-5.424 21.623-5.424 11.96 0 21.535 5.424 9.62 5.379 15.18 15.657 5.604 10.278 5.604 24.93m-19.372 0q0-9.491-2.869-16.008-2.824-6.516-7.987-9.884t-12.091-3.368-12.091 3.368q-5.163 3.368-8.031 9.884-2.825 6.517-2.825 16.008t2.825 16.007q2.868 6.516 8.031 9.884t12.091 3.368 12.091-3.368 7.987-9.884q2.87-6.517 2.869-16.007M370.835 94.666l-17.21 1.05a8.8 8.8 0 0 0-1.897-3.936q-1.457-1.794-3.839-2.843-2.34-1.095-5.605-1.094-4.369 0-7.369 1.837-3.001 1.794-3.001 4.811 0 2.406 1.942 4.067 1.941 1.663 6.663 2.668l12.268 2.45q9.885 2.011 14.739 6.473t4.854 11.721q0 6.603-3.928 11.59-3.883 4.986-10.679 7.785Q351.022 144 342.196 144q-13.46 0-21.446-5.554-7.943-5.6-9.311-15.22l18.489-.963q.839 4.068 4.06 6.211 3.222 2.099 8.252 2.099 4.943 0 7.943-1.881 3.045-1.924 3.089-4.942-.044-2.536-2.162-4.155-2.118-1.662-6.531-2.536l-11.738-2.318q-9.929-1.968-14.783-6.823-4.81-4.854-4.81-12.377 0-6.473 3.53-11.153 3.574-4.68 10.017-7.216 6.488-2.537 15.18-2.537 12.841 0 20.211 5.38 7.414 5.38 8.649 14.651M420.667 75.51v13.995h-41.834V75.51zm-32.258 67.178V70.655q0-7.304 2.869-12.115 2.912-4.81 7.943-7.216t11.429-2.406q4.325 0 7.899.657 3.618.655 5.384 1.18l-3.354 13.996q-1.104-.35-2.736-.656a17.2 17.2 0 0 0-3.266-.306q-4.148 0-5.78 1.924-1.633 1.881-1.633 5.292v71.683zM432.152 142.688V75.51h18.798v67.178zm9.443-75.838q-4.192 0-7.193-2.755-2.957-2.8-2.957-6.692 0-3.849 2.957-6.604Q437.403 48 441.595 48t7.149 2.8q3 2.754 3.001 6.603 0 3.893-3.001 6.692-2.957 2.755-7.149 2.755M484.808 103.851v38.837h-18.799V75.51h17.916v11.852h.794q2.251-5.86 7.546-9.272 5.296-3.455 12.842-3.455 7.06 0 12.311 3.062 5.252 3.06 8.164 8.747 2.913 5.642 2.913 13.47v42.774h-18.799v-39.45q.043-6.165-3.177-9.622-3.221-3.498-8.87-3.498-3.795 0-6.708 1.618-2.868 1.618-4.501 4.723-1.589 3.061-1.632 7.392"/><defs><linearGradient id="d" x1="168" x2="24" y1="168.001" y2="24.001" gradientUnits="userSpaceOnUse"><stop stop-color="#6631d6"/><stop offset="1" stop-color="#9867ff"/></linearGradient><linearGradient id="e" x1="24" x2="99.006" y1="92.995" y2="168.001" gradientUnits="userSpaceOnUse"><stop stop-color="#9867ff"/><stop offset="1" stop-color="#6833d7"/></linearGradient><linearGradient id="f" x1="168" x2="92.994" y1="99.008" y2="24.002" gradientUnits="userSpaceOnUse"><stop stop-color="#6733d7"/><stop offset="1" stop-color="#9867ff"/></linearGradient><clipPath id="a"><path fill="#fff" d="M24 24h144v144H24z"/></clipPath></defs></svg>
